X: 4583
T:Rock Valley
M:6/8
L:1/8
Q:1/4=108
C:John Burt
R:Jig
B:"The Cornhuskers Book of Square Dance Tunes"
N:) 1933 Thomas Burt & Co., Toronto
Z:posted by Chris Falt 8/97
K:C
((3G,/2A,/2B,/2)|"C"C2E GFE|"G7"D2E F2A|GAG GBd|"C"cBc AGE|!
"C"C2E GFE|"G7"D2E F2A|GAG GBd|"C"c3 c2:|!
|:g|"C"gag gag|e2c "F"cBA|"C"G2c cBc|"G7"ed^c d2g|!
"C"gag gag|e2c "F"cBA|"G7"GAc Bcd|"C"c3 c2:|
